app/client/src/assets/icons/blueprintjs/16px/issue-new.svg

<?xml version="1.0" encoding="UTF-8"?>
<svg width="16px" height="16px" viewBox="0 0 16 16" version="1.1" xmlns="http://www.w3.org/2000/svg" xmlns:xlink="http://www.w3.org/1999/xlink">
    <!-- Generator: Sketch 45.2 (43514) - http://www.bohemiancoding.com/sketch -->
    <title>pt-icon-issue-new</title>
    <desc>Created with Sketch.</desc>
    <defs></defs>
    <g id="Page-1" stroke="none" stroke-width="1" fill="none" fill-rule="evenodd">
        <g id="pt-icon-issue-new" fill="#10161A">
            <path d="M10.5676912,0.420965206 C10.558169,0.460963638 10.5496108,0.501331407 10.5420425,0.542042502 C9.70455234,0.697734173 9.01235367,1.27235812 8.69189851,2.03946235 C8.46487777,2.01339579 8.23400326,2 8,2 C4.6862915,2 2,4.6862915 2,8 C2,11.3137085 4.6862915,14 8,14 C11.3137085,14 14,11.3137085 14,8 C14,7.76757146 13.9867839,7.53822971 13.9610622,7.31268523 C14.7286033,6.99166968 15.3029969,6.29800316 15.4582239,5.45790796 C15.4988447,5.45035186 15.5391236,5.44181018 15.5790348,5.43230878 C15.8519916,6.23826326 16,7.10184702 16,8 C16,12.418278 12.418278,16 8,16 C3.581722,16 0,12.418278 0,8 C0,3.581722 3.581722,0 8,0 C8.89815298,0 9.76173674,0.148008422 10.5676912,0.420965206 Z M9,12 L7,12 L7,10 L9,10 L9,12 Z M9,9 L7,9 L7,4 L9,4 L9,9 Z M10,3 C10,2.45 10.45,2 11,2 L12,2 L12,1 C12,0.45 12.45,0 13,0 C13.55,0 14,0.45 14,1 L14,2 L15,2 C15.55,2 16,2.45 16,3 C16,3.55 15.55,4 15,4 L14,4 L14,5.00484035 C14,5.55484035 13.55,6.00484035 13,6.00484035 C12.45,6.00484035 12,5.55484035 12,5.00484035 L12,4 L11,4 C10.45,4 10,3.55 10,3 Z" id="pt-icon-issue-new-16"></path>
        </g>
    </g>
</svg>

<svg xmlns="http://www.w3.org/2000/svg" width="16" height="16"><path fill-rule="evenodd" d="M10.568.421c-.01.04-.018.08-.026.121-.837.156-1.53.73-1.85 1.497a6 6 0 1 0 5.27 5.273 2.51 2.51 0 0 0 1.496-1.854c.04-.008.081-.016.121-.026A8 8 0 1 1 10.568.421ZM9 12H7v-2h2v2Zm0-3H7V4h2v5Zm1-6c0-.55.45-1 1-1h1V1c0-.55.45-1 1-1s1 .45 1 1v1h1c.55 0 1 .45 1 1s-.45 1-1 1h-1v1.005c0 .55-.45 1-1 1s-1-.45-1-1V4h-1c-.55 0-1-.45-1-1Z"/></svg>
